svg/300/outlined/low_priority-fill.svg

<svg xmlns="http://www.w3.org/2000/svg" width="48" height="48" viewBox="0 -960 960 960"><path d="M145.385-490.538q0 87.231 61.346 145.731t147.577 57.73h22.694l-68.693-70.692 31.615-32 121.768 124.384-123.614 125.384-31.999-32 67.077-70.077h-22.694q-103.461.769-176.961-71.307-73.5-72.077-73.5-177.153 0-102.461 70.269-175.961 70.269-73.5 170.73-73.5h138.538v45.384H341q-82 0-138.807 59.731-56.808 59.73-56.808 144.346Zm425.076 248.46v-45.383h289.538v45.383H570.461Zm0-225.768v-46.384h289.538v46.384H570.461Zm-17.845-226.769v-45.384h307.383v45.384H552.616Z"/></svg>

<svg xmlns="http://www.w3.org/2000/svg" width="48" height="48" viewBox="0 -960 960 960"><path d="M145.39-490.54q0 87.23 61.34 145.73 61.35 58.5 147.58 57.73H377l-68.69-70.69 31.61-32 121.77 124.38L338.08-140l-32-32 67.08-70.08h-22.7q-103.46.77-176.96-71.31Q100-385.46 100-490.54 100-593 170.27-666.5 240.54-740 341-740h138.54v45.39H341q-82 0-138.81 59.73-56.8 59.73-56.8 144.34Zm425.07 248.46v-45.38H860v45.38H570.46Zm0-225.77v-46.38H860v46.38H570.46Zm-17.84-226.76V-740H860v45.39H552.62Z"/></svg>
